X: 23768
T: Little Diamond, The
R: polka
M: 2/4
K: Dmajor
A>B AF|DF AF|A>B AF|GF E2|
DE FG|AB cd|e>d ce|1 dA BG:|2 d2 d>e||
fd e/d/e/g/|fd cB|Ad cd|fe e>g|
fd e/d/e/g/|fd cB|Ag ec|1 d2 d>e:|2 d2 d2||

